X: 1656
T: Annie's Favourite
R: hornpipe
M: 4/4
K: Gmajor
dB|:~G2 BG AB cA|d~g3 de dc|(3.B.c.d BG (3ABc AF|~G2 AF DE FD|
~G2 BG AB cA|dg fg de dc|(3.B.c.d BG (3ABc AF|1 ~G2 AF DE FD:|2 G2 GF GA Bd||
gf ga gf .df|gf ga gf .de|fe fg af ge|fd eA d3c|
(3.B.c.B BG AG FD|(3.B.c.B BG AG FD|(3.B.c.B BG (3.A.c.A AF|~G2 GF GA Bd|
gf ga gf .df|gf ga gf .de|fe fg (3.a.g.f (3.g.f.e|fd eA .d3g|
(3.B.c.B GB AG FD|(3.B.c.B BG AG FD|(3.B.c.B BG (3.A.c.A AF|~G2 GF G2||

